X: 11
T:Irish Widow's Lament on the Death of her Only Son
M:3/4
L:1/8
S:James Whiteside manuscript
R:Air
K:C
"Andante"c4 d2|B4 c2|A2 AG ED|E4 z2|c4 d2|B4 c2|A3 B cd|e4 d2|
c4 d2|B4 c2|A2 AG ED|E4 D2|C4 D2|B,4 C2|A,6-|A,4 z2||
e4 d2|c6|d4 c2|B6|c3 B AG|A3 G ED|C4 D2|E6|
e4 d2|c6|d4 c2|B6|c3 B AG|A3 G ED|E3 F GB|A6||
e a2 g ed|e4 d2|c3 d Bc|A6|d g2 ^f ge|d4 c2|B3 A BA|G4 AB|
c4 d2|B4 c2|A3 B cd|e a2 g ed|c4 d2|B4 c2|A6-|A6||

